#src/img/fixing/c2.svg

<svg width="161" height="24" viewBox="0 0 161 24" fill="none" xmlns="http://www.w3.org/2000/svg">
  <g clip-path="url(#clip0)">
    <path fill-rule="evenodd" clip-rule="evenodd" d="M87.87 10.89C87.87 10.89 86.31 9.92999 85.35 9.54999C85.35 9.54999 82.37 8.16999 81.77 7.50999C81.77 7.50999 80.61 6.40999 81.29 5.13999C81.29 5.13999 81.57 4.30999 82.8 4.30999C82.8 4.30999 84.4 4.39999 84.4 5.70999V7.56999H90.13L90.12 4.83999C90.12 4.83999 90.56 0.369989 83.37 0.169989C83.37 0.169989 77.71 -0.200011 76.09 2.84999C76.09 2.84999 75.45 3.52999 75.45 5.89999V7.59999C75.45 7.59999 75.38 9.56999 76.39 10.85C76.39 10.85 76.96 11.68 78.36 12.6C78.36 12.6 81.21 14.14 82.92 15.01C82.92 15.01 84.65 16 84.42 17.56C84.42 17.56 84.28 19.17 82.61 19.1C82.61 19.1 81.08 19.03 81.08 17.45V15.6H74.97V18.29C74.97 18.29 74.8 23.44 82.65 23.44C82.65 23.44 90.15 23.59 90.5 18.15V15.96C90.52 15.98 90.78 12.65 87.87 10.89Z" fill="#15299D"/>
    <path fill-rule="evenodd" clip-rule="evenodd" d="M58.51 0.809937L56.59 12.8399H56.14L54.31 0.919937H44.73L44.25 22.7099H49.92L49.99 6.28994H50.44L53.44 22.6999H59.41L62.38 6.29994H62.77L62.91 22.7099H68.61L68 0.809937H58.51Z" fill="#15299D"/>
    <path fill-rule="evenodd" clip-rule="evenodd" d="M24.76 0.900024L20.98 22.68H27.09L29.32 5.79002H29.82L32.06 22.68H38.16L34.39 0.900024H24.76Z" fill="#15299D"/>
    <path fill-rule="evenodd" clip-rule="evenodd" d="M152.86 10.59V13.8H154.43V17.25C154.43 18.94 152.99 18.97 152.99 18.97C151.24 18.97 151.3 17.37 151.3 17.37V5.43998C151.3 4.20998 152.85 4.14998 152.85 4.14998C154.34 4.14998 154.35 5.61998 154.35 5.61998V7.42998H160.1C160.29 3.88998 159.58 3.02998 159.58 3.02998C158.15 -0.170019 152.76 -1.87166e-05 152.76 -1.87166e-05C144.47 -1.87166e-05 145.39 6.35998 145.39 6.35998V17.9C145.57 23.86 153.73 23.26 153.87 23.25C157.5 22.85 158.6 21.69 158.6 21.69C159.61 20.94 159.87 19.9 159.87 19.9C160.16 19.29 160.23 17.37 160.23 17.37V10.59H152.86Z" fill="#15299D"/>
    <path fill-rule="evenodd" clip-rule="evenodd" d="M133.8 14.1399H133.56L127.72 0.819937H120.74V22.7099H126.42L126.08 9.38994H126.34L132.38 22.7099H139.15V0.809937H133.4L133.8 14.1399Z" fill="#15299D"/>
    <path fill-rule="evenodd" clip-rule="evenodd" d="M106.88 17.25C106.88 17.25 106.96 19.05 105.3 19.05C105.3 19.05 103.55 19.14 103.55 17.3L103.53 0.829956H97.3V17.17C97.3 17.17 96.66 23.35 105.39 23.35C105.39 23.35 112.97 23.44 112.97 17.45V0.829956H106.88V17.25Z" fill="#15299D"/>
    <path fill-rule="evenodd" clip-rule="evenodd" d="M12.88 10.89C12.88 10.89 11.32 9.92998 10.36 9.54998C10.36 9.54998 7.38 8.16998 6.79 7.50998C6.79 7.50998 5.63 6.40998 6.31 5.13998C6.31 5.13998 6.59 4.30998 7.82 4.30998C7.82 4.30998 9.42 4.39998 9.42 5.70998V7.56998H15.16L15.15 4.83998C15.15 4.83998 15.59 0.36998 8.4 0.16998C8.4 0.16998 7.86 0.13998 7.06 0.17998C7.06 0.17998 2.7 0.40998 1.15 2.79998C1.12 2.81998 1.11 2.82998 1.1 2.84998C1.1 2.84998 0.459999 3.52998 0.459999 5.89998V7.59998C0.459999 7.59998 0.389999 9.56998 1.4 10.85C1.4 10.85 1.97 11.68 3.37 12.6C3.37 12.6 6.22 14.13 7.93 15.01C7.93 15.01 9.66 16 9.43 17.57C9.43 17.57 9.29 19.18 7.62 19.11C7.62 19.11 6.09 19.04 6.09 17.46V15.61H-7.50646e-07V18.3C-7.50646e-07 18.3 -0.170001 23.45 7.68 23.45C7.68 23.45 15.18 23.6 15.53 18.16V15.97C15.53 15.98 15.8 12.65 12.88 10.89Z" fill="#15299D"/>
  </g>
  <defs>
    <clipPath id="clip0">
      <rect width="160.24" height="23.46" fill="white"/>
    </clipPath>
  </defs>
</svg>

<svg width="161" height="24" fill="none" xmlns="http://www.w3.org/2000/svg"><g clip-path="url(#clip0)" fill-rule="evenodd" clip-rule="evenodd" fill="#15299D"><path d="M87.87 10.89s-1.56-.96-2.52-1.34c0 0-2.98-1.38-3.58-2.04 0 0-1.16-1.1-.48-2.37 0 0 .28-.83 1.51-.83 0 0 1.6.09 1.6 1.4v1.86h5.73l-.01-2.73S90.56.37 83.37.17c0 0-5.66-.37-7.28 2.68 0 0-.64.68-.64 3.05v1.7s-.07 1.97.94 3.25c0 0 .57.83 1.97 1.75 0 0 2.85 1.54 4.56 2.41 0 0 1.73.99 1.5 2.55 0 0-.14 1.61-1.81 1.54 0 0-1.53-.07-1.53-1.65V15.6h-6.11v2.69s-.17 5.15 7.68 5.15c0 0 7.5.15 7.85-5.29v-2.19c.02.02.28-3.31-2.63-5.07zM58.51.81l-1.92 12.03h-.45L54.31.92h-9.58l-.48 21.79h5.67l.07-16.42h.45l3 16.41h5.97l2.97-16.4h.39l.14 16.41h5.7L68 .81h-9.49zM24.76.9l-3.78 21.78h6.11l2.23-16.89h.5l2.24 16.89h6.1L34.39.9h-9.63zm128.1 9.69v3.21h1.57v3.45c0 1.69-1.44 1.72-1.44 1.72-1.75 0-1.69-1.6-1.69-1.6V5.44c0-1.23 1.55-1.29 1.55-1.29 1.49 0 1.5 1.47 1.5 1.47v1.81h5.75c.19-3.54-.52-4.4-.52-4.4-1.43-3.2-6.82-3.03-6.82-3.03-8.29 0-7.37 6.36-7.37 6.36V17.9c.18 5.96 8.34 5.36 8.48 5.35 3.63-.4 4.73-1.56 4.73-1.56 1.01-.75 1.27-1.79 1.27-1.79.29-.61.36-2.53.36-2.53v-6.78h-7.37zm-19.06 3.55h-.24L127.72.82h-6.98v21.89h5.68l-.34-13.32h.26l6.04 13.32h6.77V.81h-5.75l.4 13.33zm-26.92 3.11s.08 1.8-1.58 1.8c0 0-1.75.09-1.75-1.75L103.53.83H97.3v16.34s-.64 6.18 8.09 6.18c0 0 7.58.09 7.58-5.9V.83h-6.09v16.42zm-94-6.36s-1.56-.96-2.52-1.34c0 0-2.98-1.38-3.57-2.04 0 0-1.16-1.1-.48-2.37 0 0 .28-.83 1.51-.83 0 0 1.6.09 1.6 1.4v1.86h5.74l-.01-2.73S15.59.37 8.4.17c0 0-.54-.03-1.34.01 0 0-4.36.23-5.91 2.62-.03.02-.04.03-.05.05 0 0-.64.68-.64 3.05v1.7s-.07 1.97.94 3.25c0 0 .57.83 1.97 1.75 0 0 2.85 1.53 4.56 2.41 0 0 1.73.99 1.5 2.56 0 0-.14 1.61-1.81 1.54 0 0-1.53-.07-1.53-1.65v-1.85H0v2.69s-.17 5.15 7.68 5.15c0 0 7.5.15 7.85-5.29v-2.19c0 .01.27-3.32-2.65-5.08z"/></g><defs><clipPath id="clip0"><path fill="#fff" d="M0 0h160.24v23.46H0z"/></clipPath></defs></svg>
